images/unYFI.svg

<svg height="250" viewBox="0 0 250 250" width="250" xmlns="http://www.w3.org/2000/svg" xmlns:xlink="http://www.w3.org/1999/xlink"><linearGradient id="a" gradientUnits="userSpaceOnUse" x1="60.19816791278" x2="249.16055933273" y1="-.00000229358" y2="43.7715599832"><stop offset="0" stop-color="#2e73ff"/><stop offset=".894147" stop-color="#184ce8"/></linearGradient><path d="m248.820312 124.410156c0 68.710938-55.699218 124.410156-124.410156 124.410156-68.710937 0-124.410156-55.699218-124.410156-124.410156 0-68.710937 55.699219-124.410156 124.410156-124.410156 68.710938 0 124.410156 55.699219 124.410156 124.410156zm0 0" fill="url(#a)"/><path d="m153.121094 187.890625c-2.632813-2.9375-6.191406-4.40625-10.675782-4.40625-2.636718 0-4.972656.539063-7.007812 1.609375-2 1.050781-3.59375 2.417969-4.789062 4.105469v-5.371094h-13.664063v20.550781c0 2.1875-.578125 3.90625-1.730469 5.160156-1.160156 1.25-2.730468 1.875-4.71875 1.875-1.941406 0-3.5-.625-4.679687-1.875-1.179688-1.253906-1.769531-2.972656-1.769531-5.160156v-20.550781h-13.523438v22.261719c0 5.050781 1.308594 9.046875 3.917969 11.984375 2.613281 2.933593 6.183593 4.402343 10.714843 4.402343 2.636719 0 4.972657-.535156 7.007813-1.605468 2.03125-1.066406 3.628906-2.46875 4.78125-4.199219v5.464844h13.664063v-21.765625c.179687-1.621094.738281-2.933594 1.671874-3.945313 1.152344-1.25 2.746094-1.878906 4.78125-1.878906 1.941407 0 3.492188.628906 4.648438 1.878906 1.15625 1.253907 1.734375 2.96875 1.734375 5.15625v20.554688h13.59375v-22.328125c0-5.007813-1.320313-8.980469-3.957031-11.917969zm0 0" fill="#fff"/><path d="m210.792969 179.753906c10.25-15.964844 16.195312-34.960937 16.195312-55.34375 0-56.65625-45.925781-102.582031-102.582031-102.582031s-102.582031 45.925781-102.582031 102.582031c0 20.5625 6.046875 39.710938 16.464843 55.761719 21.398438-10.644531 52.308594-17.328125 86.675782-17.328125 33.917968 0 64.464844 6.511719 85.828125 16.910156zm0 0" fill="#fff" fill-rule="evenodd"/><g fill="#2c2c2c"><path d="m120.46875 66.621094h6.789062v61.394531h-6.789062zm0 0" fill-rule="evenodd"/><path d="m153.894531 78.816406-8.796875 2.835938c1.699219-4.289063 1.882813-9.011719 1.882813-9.597656v-.09375c0-13.117188-10.679688-23.796876-23.796875-23.796876-13.117188 0-23.796875 10.679688-23.796875 23.796876 0 7.902343 3.890625 15.25 10.433593 19.695312l7.5625 5.554688v-8.425782l-3.613281-2.65625-.089843-.0625c-4.691407-3.175781-7.503907-8.457031-7.503907-14.105468 0-9.382813 7.625-17.003907 17.007813-17.003907 9.351562 0 16.976562 7.589844 17.007812 16.976563-.0625 1.292968-.402344 4.75-1.480468 7.40625l-2.777344-9.9375-6.546875 1.820312 5.835937 20.773438 20.742188-6.699219zm0 0"/><path d="m134.695312 101.5-4.351562-3.210938v8.429688l.371094.277344.03125.03125c6.292968 4.503906 9.472656 9.78125 9.472656 15.679687 0 9.382813-7.621094 17.003907-17.003906 17.003907-9.386719 0-17.007813-7.621094-17.007813-17.003907 0-3.121093 1.265625-6.546875 2.992188-9.324219l1.542969 11.546876 6.730468-.898438-2.839844-21.296875-21.882812 4.105469 1.265625 6.667968 7.929687-1.480468c-1.664062 3.300781-2.53125 6.914062-2.53125 10.679687 0 13.117188 10.679688 23.796875 23.800782 23.796875 13.117187 0 23.796875-10.679687 23.796875-23.796875-.03125-8.089843-4.292969-15.433593-12.316407-21.207031zm0 0"/></g></svg>

<svg xmlns="http://www.w3.org/2000/svg" xmlns:xlink="http://www.w3.org/1999/xlink" width="250px" height="250px" viewBox="0 0 250 250" version="1.1">
<defs>
<linearGradient id="linear0" gradientUnits="userSpaceOnUse" x1="26.246401" y1="-0.000000559633" x2="108.634003" y2="19.0844" gradientTransform="matrix(2.293578,0,0,2.293578,0,0)">
<stop offset="0" style="stop-color:rgb(18.039216%,45.09804%,100%);stop-opacity:1;"/>
<stop offset="0.894147" style="stop-color:rgb(9.411765%,29.803923%,90.980393%);stop-opacity:1;"/>
</linearGradient>
</defs>
<g id="surface1">
<path style=" stroke:none;fill-rule:nonzero;fill:url(#linear0);" d="M 248.820312 124.410156 C 248.820312 193.121094 193.121094 248.820312 124.410156 248.820312 C 55.699219 248.820312 0 193.121094 0 124.410156 C 0 55.699219 55.699219 0 124.410156 0 C 193.121094 0 248.820312 55.699219 248.820312 124.410156 Z M 248.820312 124.410156 "/>
<path style=" stroke:none;fill-rule:nonzero;fill:rgb(100%,100%,100%);fill-opacity:1;" d="M 153.121094 187.890625 C 150.488281 184.953125 146.929688 183.484375 142.445312 183.484375 C 139.808594 183.484375 137.472656 184.023438 135.4375 185.09375 C 133.4375 186.144531 131.84375 187.511719 130.648438 189.199219 L 130.648438 183.828125 L 116.984375 183.828125 L 116.984375 204.378906 C 116.984375 206.566406 116.40625 208.285156 115.253906 209.539062 C 114.09375 210.789062 112.523438 211.414062 110.535156 211.414062 C 108.59375 211.414062 107.035156 210.789062 105.855469 209.539062 C 104.675781 208.285156 104.085938 206.566406 104.085938 204.378906 L 104.085938 183.828125 L 90.5625 183.828125 L 90.5625 206.089844 C 90.5625 211.140625 91.871094 215.136719 94.480469 218.074219 C 97.09375 221.007812 100.664062 222.476562 105.195312 222.476562 C 107.832031 222.476562 110.167969 221.941406 112.203125 220.871094 C 114.234375 219.804688 115.832031 218.402344 116.984375 216.671875 L 116.984375 222.136719 L 130.648438 222.136719 L 130.648438 200.371094 C 130.828125 198.75 131.386719 197.4375 132.320312 196.425781 C 133.472656 195.175781 135.066406 194.546875 137.101562 194.546875 C 139.042969 194.546875 140.59375 195.175781 141.75 196.425781 C 142.90625 197.679688 143.484375 199.394531 143.484375 201.582031 L 143.484375 222.136719 L 157.078125 222.136719 L 157.078125 199.808594 C 157.078125 194.800781 155.757812 190.828125 153.121094 187.890625 Z M 153.121094 187.890625 "/>
<path style=" stroke:none;fill-rule:evenodd;fill:rgb(100%,100%,100%);fill-opacity:1;" d="M 210.792969 179.753906 C 221.042969 163.789062 226.988281 144.792969 226.988281 124.410156 C 226.988281 67.753906 181.0625 21.828125 124.40625 21.828125 C 67.75 21.828125 21.824219 67.753906 21.824219 124.410156 C 21.824219 144.972656 27.871094 164.121094 38.289062 180.171875 C 59.6875 169.527344 90.597656 162.84375 124.964844 162.84375 C 158.882812 162.84375 189.429688 169.355469 210.792969 179.753906 Z M 210.792969 179.753906 "/>
<path style=" stroke:none;fill-rule:evenodd;fill:rgb(17.254902%,17.254902%,17.254902%);fill-opacity:1;" d="M 120.46875 66.621094 L 127.257812 66.621094 L 127.257812 128.015625 L 120.46875 128.015625 Z M 120.46875 66.621094 "/>
<path style=" stroke:none;fill-rule:nonzero;fill:rgb(17.254902%,17.254902%,17.254902%);fill-opacity:1;" d="M 153.894531 78.816406 L 145.097656 81.652344 C 146.796875 77.363281 146.980469 72.640625 146.980469 72.054688 L 146.980469 71.960938 C 146.980469 58.84375 136.300781 48.164062 123.183594 48.164062 C 110.066406 48.164062 99.386719 58.84375 99.386719 71.960938 C 99.386719 79.863281 103.277344 87.210938 109.820312 91.65625 L 117.382812 97.210938 L 117.382812 88.785156 L 113.769531 86.128906 L 113.679688 86.066406 C 108.988281 82.890625 106.175781 77.609375 106.175781 71.960938 C 106.175781 62.578125 113.800781 54.957031 123.183594 54.957031 C 132.535156 54.957031 140.160156 62.546875 140.191406 71.933594 C 140.128906 73.226562 139.789062 76.683594 138.710938 79.339844 L 135.933594 69.402344 L 129.386719 71.222656 L 135.222656 91.996094 L 155.964844 85.296875 Z M 153.894531 78.816406 "/>
<path style=" stroke:none;fill-rule:nonzero;fill:rgb(17.254902%,17.254902%,17.254902%);fill-opacity:1;" d="M 134.695312 101.5 L 130.34375 98.289062 L 130.34375 106.71875 L 130.714844 106.996094 L 130.746094 107.027344 C 137.039062 111.53125 140.21875 116.808594 140.21875 122.707031 C 140.21875 132.089844 132.597656 139.710938 123.214844 139.710938 C 113.828125 139.710938 106.207031 132.089844 106.207031 122.707031 C 106.207031 119.585938 107.472656 116.160156 109.199219 113.382812 L 110.742188 124.929688 L 117.472656 124.03125 L 114.632812 102.734375 L 92.75 106.839844 L 94.015625 113.507812 L 101.945312 112.027344 C 100.28125 115.328125 99.414062 118.941406 99.414062 122.707031 C 99.414062 135.824219 110.09375 146.503906 123.214844 146.503906 C 136.332031 146.503906 147.011719 135.824219 147.011719 122.707031 C 146.980469 114.617188 142.71875 107.273438 134.695312 101.5 Z M 134.695312 101.5 "/>
</g>
</svg>
